X: 01045
T: FOX HOLLOW
C: Bob McQuillen Aug.'75
B: Bob's Note Book 1 #45
%R: reel
Z: 2019 John Chambers <jc:trillian.mit.edu>
M: C
L: 1/8
K: A
ed \
| cAGA cAGA | FAGF EFED | CEAc ecdc | B2E2 E2ed |
| cAGA cAGA | FAGF EFED | CEAc dBGB | A2c2 A2 :|
|: GA \
| BEEE BEEE | Bcdc B2AB | cAAA cAAA | cdef e2fg |
| aAAA gAAA | fgaf eccc | defa ecBd | c2A2 A2 :|
%%begintext align
%% For DON and EVELYN BERNSTEIN ...
%% with love always, and always with many
%% heart felt thanks for the joys you have given us.
%%endtext

%%sep 1 1 500

%%sep 1 1 500

